usr/share/icons/biglinux-icons-material/scalable/apps/skrooge-black.svg

<?xml version="1.0" encoding="UTF-8" standalone="no"?>
<svg
   width="24"
   height="24"
   version="1.1"
   id="svg3"
   sodipodi:docname="skrooge-black.svg"
   inkscape:version="1.3 (0e150ed6c4, 2023-07-21)"
   xmlns:inkscape="http://www.inkscape.org/namespaces/inkscape"
   xmlns:sodipodi="http://sodipodi.sourceforge.net/DTD/sodipodi-0.dtd"
   xmlns:xlink="http://www.w3.org/1999/xlink"
   xmlns="http://www.w3.org/2000/svg"
   xmlns:svg="http://www.w3.org/2000/svg">
  <sodipodi:namedview
     id="namedview3"
     pagecolor="#ffffff"
     bordercolor="#000000"
     borderopacity="0.25"
     inkscape:showpageshadow="2"
     inkscape:pageopacity="0.0"
     inkscape:pagecheckerboard="0"
     inkscape:deskcolor="#d1d1d1"
     inkscape:zoom="6.3359375"
     inkscape:cx="-0.31565968"
     inkscape:cy="32.118372"
     inkscape:window-width="2560"
     inkscape:window-height="998"
     inkscape:window-x="0"
     inkscape:window-y="0"
     inkscape:window-maximized="1"
     inkscape:current-layer="svg3" />
  <defs
     id="defs2">
    <linearGradient
       id="a"
       x1="428.57001"
       x2="388.57001"
       y1="543.79999"
       y2="503.79999"
       gradientUnits="userSpaceOnUse"
       gradientTransform="matrix(1.35,0,0,1.35,-479.57,-675.13)">
      <stop
         stop-color="#2a2c2f"
         offset="0"
         id="stop1" />
      <stop
         stop-color="#424649"
         offset="1"
         id="stop2" />
    </linearGradient>
    <radialGradient
       id="paint0_radial_3_321"
       cx="0"
       cy="0"
       r="1"
       gradientUnits="userSpaceOnUse"
       gradientTransform="matrix(0,22,-22,0,11.999987,1.0000149)">
      <stop
         stop-color="#555555"
         id="stop180" />
      <stop
         offset="1"
         stop-color="#222222"
         id="stop182" />
    </radialGradient>
    <linearGradient
       inkscape:collect="always"
       xlink:href="#a"
       id="linearGradient5"
       gradientUnits="userSpaceOnUse"
       gradientTransform="matrix(0.44444445,0,0,0.44444445,-169.61422,-220.55889)"
       x1="428.57001"
       y1="543.79999"
       x2="388.57001"
       y2="503.79999" />
  </defs>
  <path
     fill-rule="evenodd"
     clip-rule="evenodd"
     d="m 9.5960272,1.1136049 c 0.11984,0.00127 0.23439,-0.01399 0.34365,-0.0458 1.4358098,-0.094054 2.8714098,-0.090239 4.3070098,0.01145 1.3017,0.10142 2.5618,0.38384 3.7802,0.84726 2.0256,0.83394 3.4117,2.2804 4.1581,4.33936 0.4269,1.23963 0.6789,2.51435 0.7561,3.8241401 0.1067,1.6447 0.0685,3.2858 -0.1146,4.9233 -0.137,1.1509 -0.4349,2.2577 -0.8935,3.3203 -0.8506,1.8425 -2.229,3.1134 -4.1352,3.8127 -1.5447,0.5219 -3.1331,0.7967 -4.7653,0.8243 -1.8359,0.0955 -3.6533698,-0.0419 -5.4525298,-0.4121 -3.31158,-0.7377 -5.35438,-2.7567 -6.12839,-6.0568 -0.32847,-1.4856 -0.47738099,-2.9893 -0.44675,-4.5111 -0.03665,-1.6182 0.13517,-3.2135101 0.51548,-4.7858901 0.8114,-3.08563 2.77019,-4.9977 5.87638,-5.73619 0.72379,-0.17695 1.45691,-0.29526 2.19935,-0.35493 z"
     fill="url(#paint0_radial_3_321)"
     id="path174"
     style="fill:url(#paint0_radial_3_321)" />
  <path
     d="M 11.541333,16.881111 8.152444,11.965556 7.972,9.632222 10.347111,9.354444 12.013777,7.118889 13.875111,9.632667 16.028,9.924222 15.014222,13.438 12.305777,16.868667 Z"
     fill="url(#a)"
     fill-rule="evenodd"
     id="path4"
     style="fill:url(#linearGradient5);stroke-width:1.35" />
  <path
     d="m 12,4 a 8.0000001,8.0000001 0 0 0 -8,8 8.0000001,8.0000001 0 0 0 8,8 8.0000001,8.0000001 0 0 0 8,-8 8.0000001,8.0000001 0 0 0 -8,-8 m 0,0.8888889 a 7.1111112,7.1111112 0 0 1 6.979424,5.7777781 h -1.646091 c -0.246255,0 -0.444444,0.198189 -0.444444,0.444444 0,0.246255 0.198189,0.444445 0.444444,0.444445 H 19.09465 A 7.1111112,7.1111112 0 0 1 19.11111,12 7.1111112,7.1111112 0 0 1 19.08872,12.444445 h -1.755391 c -0.246255,0 -0.444444,0.198189 -0.444444,0.444444 0,0.246255 0.198189,0.444444 0.444444,0.444444 h 1.648724 a 7.1111112,7.1111112 0 0 1 -6.982386,5.777778 7.1111112,7.1111112 0 0 1 -6.979754,-5.777778 h 1.646749 c 0.245926,0 0.444445,-0.198189 0.444445,-0.444444 0,-0.246255 -0.198519,-0.444444 -0.444445,-0.444444 h -1.76 A 7.1111112,7.1111112 0 0 1 4.888889,12 7.1111112,7.1111112 0 0 1 4.911279,11.555556 H 6.66667 c 0.246255,0 0.444445,-0.19819 0.444445,-0.444445 0,-0.246255 -0.19819,-0.444444 -0.444445,-0.444444 H 5.018271 A 7.1111112,7.1111112 0 0 1 12,4.8888889 m 0,1.7777781 c -0.296297,0 -0.573498,0.08362 -0.786502,0.238683 -0.209054,0.155062 -0.343046,0.360494 -0.444445,0.562963 -0.20181,0.403621 -0.303868,0.830288 -0.497778,1.222057 -0.07341,0.142552 -0.09646,0.140906 -0.144526,0.154733 -0.04807,0.01482 -0.164609,0.01811 -0.340083,-0.0072 C 9.431111,8.787203 8.849382,8.634117 8.245926,8.937985 7.904197,9.106874 7.67967,9.429837 7.586831,9.76992 c -0.09613,0.339753 -0.0879,0.703868 -0.02667,1.080823 0.127078,0.753909 0.48428,1.57037 0.96,2.284773 0.426667,0.638354 0.984033,1.64247 1.554568,2.500083 0.285432,0.426666 0.57284,0.817777 0.870782,1.125926 0.298272,0.306172 0.610041,0.571852 1.054486,0.571852 0.444444,0 0.755555,-0.26568 1.053827,-0.571852 0.297284,-0.308149 0.586337,-0.69926 0.871769,-1.125926 0.570535,-0.857613 1.130206,-1.861729 1.555556,-2.500083 0.476049,-0.714403 0.831934,-1.530864 0.957366,-2.284773 0.06387,-0.376955 0.06815,-0.740741 -0.02403,-1.080823 C 16.319675,9.429837 16.097778,9.106874 15.754403,8.937985 15.151275,8.634117 14.56823,8.787204 14.214321,8.837903 14.03786,8.863253 13.920658,8.859963 13.871275,8.845503 13.826835,8.831343 13.804445,8.832993 13.731358,8.690441 13.535144,8.298672 13.431111,7.872005 13.231275,7.468055 13.129876,7.265915 12.995555,7.060483 12.784197,6.905421 12.573498,6.750288 12.296625,6.666667 12,6.666667 m 0,4.444444 c 0.246255,0 0.444444,0.19819 0.444444,0.444445 v 2.666666 c 0,0.246256 -0.198189,0.444445 -0.444444,0.444445 -0.246255,0 -0.444445,-0.198189 -0.444445,-0.444445 v -2.666666 c 0,-0.246255 0.198519,-0.444445 0.444445,-0.444445"
     fill="#d4d5d6"
     id="path5"
     style="stroke-width:1" />
</svg>

<svg xmlns="http://www.w3.org/2000/svg" xmlns:xlink="http://www.w3.org/1999/xlink" width="24" height="24"><defs><linearGradient id="a" x1="428.57" x2="388.57" y1="543.8" y2="503.8" gradientTransform="matrix(1.35 0 0 1.35 -479.57 -675.13)" gradientUnits="userSpaceOnUse"><stop offset="0" stop-color="#2a2c2f"/><stop offset="1" stop-color="#424649"/></linearGradient><linearGradient xlink:href="#a" id="c" x1="428.57" x2="388.57" y1="543.8" y2="503.8" gradientTransform="matrix(.44444 0 0 .44444 -169.614 -220.559)" gradientUnits="userSpaceOnUse"/><radialGradient id="b" cx="0" cy="0" r="1" gradientTransform="matrix(0 22 -22 0 12 1)" gradientUnits="userSpaceOnUse"><stop stop-color="#555"/><stop offset="1" stop-color="#222"/></radialGradient></defs><path fill="url(#b)" fill-rule="evenodd" d="M9.596 1.114c.12 0 .234-.014.344-.046a31.627 31.627 0 0 1 4.307.011c1.301.102 2.561.384 3.78.848 2.025.833 3.412 2.28 4.158 4.339.427 1.24.679 2.514.756 3.824a27.94 27.94 0 0 1-.115 4.923 11.88 11.88 0 0 1-.893 3.32c-.85 1.843-2.229 3.114-4.135 3.813a15.624 15.624 0 0 1-4.766.825 21.423 21.423 0 0 1-5.452-.412c-3.312-.738-5.354-2.757-6.128-6.057a19.047 19.047 0 0 1-.447-4.511 18.491 18.491 0 0 1 .515-4.786c.812-3.086 2.77-4.998 5.877-5.736a13.953 13.953 0 0 1 2.199-.355z" clip-rule="evenodd" style="fill:url(#b)"/><path fill="url(#a)" fill-rule="evenodd" d="m11.541 16.881-3.389-4.915-.18-2.334 2.375-.278 1.667-2.235 1.861 2.514 2.153.291-1.014 3.514-2.708 3.43Z" style="fill:url(#c);stroke-width:1.35"/><path fill="#d4d5d6" d="M12 4a8 8 0 0 0-8 8 8 8 0 0 0 8 8 8 8 0 0 0 8-8 8 8 0 0 0-8-8m0 .889a7.111 7.111 0 0 1 6.98 5.778h-1.647a.443.443 0 1 0 0 .889h1.762a7.111 7.111 0 0 1 .016.444 7.111 7.111 0 0 1-.022.444h-1.756a.443.443 0 1 0 0 .89h1.65A7.111 7.111 0 0 1 12 19.11a7.111 7.111 0 0 1-6.98-5.778h1.647a.444.444 0 1 0 0-.889h-1.76A7.111 7.111 0 0 1 4.889 12a7.111 7.111 0 0 1 .022-.444h1.756a.443.443 0 1 0 0-.89H5.018A7.111 7.111 0 0 1 12 4.89m0 1.778c-.296 0-.573.083-.787.238-.209.155-.343.36-.444.563-.202.404-.304.83-.498 1.222-.073.143-.096.141-.144.155-.048.015-.165.018-.34-.007-.356-.05-.938-.204-1.541.1a1.302 1.302 0 0 0-.66.832c-.095.34-.087.704-.026 1.08.127.755.484 1.571.96 2.286.427.638.984 1.642 1.555 2.5.285.426.573.817.87 1.126.299.306.61.571 1.055.571.444 0 .756-.265 1.054-.571.297-.309.586-.7.872-1.126.57-.858 1.13-1.862 1.555-2.5.476-.715.832-1.531.958-2.285.063-.377.068-.741-.025-1.081-.094-.34-.316-.663-.66-.832-.603-.304-1.186-.15-1.54-.1-.176.025-.293.022-.343.008-.044-.015-.067-.013-.14-.156-.196-.391-.3-.818-.5-1.222a1.512 1.512 0 0 0-.447-.563A1.323 1.323 0 0 0 12 6.667m0 4.444c.246 0 .444.198.444.445v2.666a.443.443 0 1 1-.888 0v-2.666c0-.247.198-.445.444-.445" style="stroke-width:1"/></svg>
